svg/part/t_shirt_2_line.svg

<?xml version="1.0" encoding="UTF-8"?>
<svg width="24px" height="24px" viewBox="0 0 24 24" version="1.1" xmlns="http://www.w3.org/2000/svg" xmlns:xlink="http://www.w3.org/1999/xlink">
    <title>t_shirt_2_line</title>
    <g id="Icon" stroke="none" stroke-width="1" fill="none" fill-rule="evenodd">
        <g id="Part" transform="translate(-720.000000, -96.000000)">
            <g id="t_shirt_2_line" transform="translate(720.000000, 96.000000)">
                <path d="M24,0 L24,24 L0,24 L0,0 L24,0 Z M12.5934901,23.257841 L12.5819402,23.2595131 L12.5108777,23.2950439 L12.4918791,23.2987469 L12.4918791,23.2987469 L12.4767152,23.2950439 L12.4056548,23.2595131 C12.3958229,23.2563662 12.3870493,23.2590235 12.3821421,23.2649074 L12.3780323,23.275831 L12.360941,23.7031097 L12.3658947,23.7234994 L12.3769048,23.7357139 L12.4804777,23.8096931 L12.4953491,23.8136134 L12.4953491,23.8136134 L12.5071152,23.8096931 L12.6106902,23.7357139 L12.6232938,23.7196733 L12.6232938,23.7196733 L12.6266527,23.7031097 L12.609561,23.275831 C12.6075724,23.2657013 12.6010112,23.2592993 12.5934901,23.257841 L12.5934901,23.257841 Z M12.8583906,23.1452862 L12.8445485,23.1473072 L12.6598443,23.2396597 L12.6498822,23.2499052 L12.6498822,23.2499052 L12.6471943,23.2611114 L12.6650943,23.6906389 L12.6699349,23.7034178 L12.6699349,23.7034178 L12.678386,23.7104931 L12.8793402,23.8032389 C12.8914285,23.8068999 12.9022333,23.8029875 12.9078286,23.7952264 L12.9118235,23.7811639 L12.8776777,23.1665331 C12.8752882,23.1545897 12.8674102,23.1470016 12.8583906,23.1452862 L12.8583906,23.1452862 Z M12.1430473,23.1473072 C12.1332178,23.1423925 12.1221763,23.1452606 12.1156365,23.1525954 L12.1099173,23.1665331 L12.0757714,23.7811639 C12.0751323,23.7926639 12.0828099,23.8018602 12.0926481,23.8045676 L12.108256,23.8032389 L12.3092106,23.7104931 L12.3186497,23.7024347 L12.3186497,23.7024347 L12.3225043,23.6906389 L12.340401,23.2611114 L12.337245,23.2485176 L12.337245,23.2485176 L12.3277531,23.2396597 L12.1430473,23.1473072 Z" id="MingCute" fill-rule="nonzero"></path>
                <path d="M15,3 C18.2383886,3 20.8775714,5.56557346 20.9958615,8.77506164 L21,9 L21,11 C21,11.51285 20.613973,11.9355092 20.1166239,11.9932725 L20,12 L18,12 L18,19 C18,20.0543909 17.18415,20.9181678 16.1492661,20.9945144 L16,21 L8,21 C6.94563773,21 6.08183483,20.18415 6.00548573,19.1492661 L6,19 L6,12 L4,12 C3.48716857,12 3.06449347,11.613973 3.0067278,11.1166239 L3,11 L3,9 C3,5.76160159 5.56557346,3.12242817 8.77506164,3.00413847 L9,3 L15,3 Z M15.9981,5.12552 C15.9318,7.27658 14.1671,9 12,9 C9.83286,9 8.06824,7.27658 8.00193,5.12552 C6.3396537,5.55246889 5.09511573,7.02096779 5.00520795,8.79409806 L5,9 L5,10 L7,10 C7.51283143,10 7.93550653,10.386027 7.9932722,10.8833761 L8,11 L8,19 L16,19 L16,11 C16,10.48715 16.386027,10.0644908 16.8833761,10.0067275 L17,10 L19,10 L19,9 C19,7.13546 17.7243,5.56889 15.9981,5.12552 Z M14,5 L10,5 C10,6.10457 10.8954,7 12,7 C13.1046,7 14,6.10457 14,5 Z" id="形状" fill="#09244B"></path>
            </g>
        </g>
    </g>
</svg>

<svg xmlns="http://www.w3.org/2000/svg" width="24" height="24"><g fill="none" fill-rule="evenodd"><path d="M24 0v24H0V0h24ZM12.593 23.258l-.011.002-.071.035-.02.004-.014-.004-.071-.035c-.01-.004-.019-.001-.024.005l-.004.01-.017.428.005.02.01.013.104.074.015.004.012-.004.104-.074.012-.016.004-.017-.017-.427c-.002-.01-.009-.017-.017-.018Zm.265-.113-.013.002-.185.093-.01.01-.003.011.018.43.005.012.008.007.201.093c.012.004.023 0 .029-.008l.004-.014-.034-.614c-.003-.012-.01-.02-.02-.022Zm-.715.002a.023.023 0 0 0-.027.006l-.006.014-.034.614c0 .012.007.02.017.024l.015-.002.201-.093.01-.008.004-.011.017-.43-.003-.012-.01-.01-.184-.092Z"/><path fill="#09244B" d="M15 3a6 6 0 0 1 5.996 5.775L21 9v2a1 1 0 0 1-.883.993L20 12h-2v7a2 2 0 0 1-1.85 1.995L16 21H8a2 2 0 0 1-1.995-1.85L6 19v-7H4a1 1 0 0 1-.993-.883L3 11V9a6 6 0 0 1 5.775-5.996L9 3h6Zm.998 2.126a4 4 0 0 1-7.996 0 4.002 4.002 0 0 0-2.997 3.668L5 9v1h2a1 1 0 0 1 .993.883L8 11v8h8v-8a1 1 0 0 1 .883-.993L17 10h2V9a4.002 4.002 0 0 0-3.002-3.874ZM14 5h-4a2 2 0 1 0 4 0Z"/></g></svg>
